ui/StatusQ/src/assets/img/icons/remove-contact.svg

<svg fill="none" height="24" viewBox="0 0 24 24" width="24" xmlns="http://www.w3.org/2000/svg"><g fill="#000"><path clip-rule="evenodd" d="m12 13c2.7614 0 5-2.2386 5-5 0-2.76142-2.2386-5-5-5-2.76142 0-5 2.23858-5 5 0 2.7614 2.23858 5 5 5zm0-1.5c1.933 0 3.5-1.567 3.5-3.5s-1.567-3.5-3.5-3.5-3.5 1.567-3.5 3.5 1.567 3.5 3.5 3.5z" fill-rule="evenodd"/><path d="m12.9345 16.7839c-.0348.4176-.4057.7221-.8246.7168-.0367-.0005-.0733-.0007-.1101-.0007-2.54335 0-4.82585 1.1171-6.38356 2.8874-.3025.3438-.83852.3905-1.16232.0666-.26073-.2607-.29211-.6756-.05225-.9556 1.83407-2.1414 4.55765-3.4984 7.59813-3.4984.087 0 .1737.0011.2601.0033.409.0105.7086.3729.6746.7806z"/><path d="m16 16c-.4142 0-.75.3358-.75.75s.3358.75.75.75h5c.4142 0 .75-.3358.75-.75s-.3358-.75-.75-.75z"/></g></svg>

<svg width="24" height="24" viewBox="0 0 24 24" fill="none" xmlns="http://www.w3.org/2000/svg">
<path fill-rule="evenodd" clip-rule="evenodd" d="M12 13C14.7614 13 17 10.7614 17 8C17 5.23858 14.7614 3 12 3C9.23858 3 7 5.23858 7 8C7 10.7614 9.23858 13 12 13ZM12 11.5C13.933 11.5 15.5 9.933 15.5 8C15.5 6.067 13.933 4.5 12 4.5C10.067 4.5 8.5 6.067 8.5 8C8.5 9.933 10.067 11.5 12 11.5Z" fill="black"/>
<path d="M12.9345 16.7839C12.8997 17.2015 12.5288 17.506 12.1099 17.5007C12.0732 17.5002 12.0366 17.5 11.9998 17.5C9.45645 17.5 7.17395 18.6171 5.61624 20.3874C5.31374 20.7312 4.77772 20.7779 4.45392 20.454C4.19319 20.1933 4.16181 19.7784 4.40167 19.4984C6.23574 17.357 8.95932 16 11.9998 16C12.0868 16 12.1735 16.0011 12.2599 16.0033C12.6689 16.0138 12.9685 16.3762 12.9345 16.7839Z" fill="black"/>
<path d="M16 16C15.5858 16 15.25 16.3358 15.25 16.75C15.25 17.1642 15.5858 17.5 16 17.5H21C21.4142 17.5 21.75 17.1642 21.75 16.75C21.75 16.3358 21.4142 16 21 16H16Z" fill="black"/>
</svg>
